NetIcons150/ModuleGame%28RiderDark%29.svg

<svg width="16" height="16" viewBox="0 0 16 16" xmlns="http://www.w3.org/2000/svg">
  <path fill="#40b6e0" d="M6 10V8H3v2H1v3h2v2h3v-2h2v-3H6Zm-3.5 2a.5.5 0 1 1 0-1 .5.5 0 0 1 0 1Zm2 2a.5.5 0 1 1 0-1 .5.5 0 0 1 0 1Zm0-4a.5.5 0 1 1 0-1 .5.5 0 0 1 0 1Zm2 2a.5.5 0 1 1 0-1 .5.5 0 0 1 0 1Z"/>
  <path fill="#9aa7b0" d="M9 2h3v1.5H9V2ZM4 2h3v1.5H4V2ZM2 4v3.76A4.478 4.478 0 0 1 8.95 11H14V4H2Z" opacity=".8"/>
</svg>

<svg xmlns="http://www.w3.org/2000/svg" width="16" height="16">
  <path fill="#40b6e0" fill-rule="evenodd" d="M6 10L6 8 3 8 3 10 1 10 1 13 3 13 3 15 6 15 6 13 8 13 8 10 6 10z"/>
  <circle cx="2.5" cy="11.5" r=".5" fill="#231f20" opacity=".7"/>
  <circle cx="4.5" cy="13.5" r=".5" fill="#231f20" opacity=".7"/>
  <circle cx="4.5" cy="9.5" r=".5" fill="#231f20" opacity=".7"/>
  <circle cx="6.5" cy="11.5" r=".5" fill="#231f20" opacity=".7"/>
  <path fill="#9aa7b0" opacity=".8" d="M9 2H12V3.5H9zM4 2H7V3.5H4zM2 4V7.76A4.479 4.479 0 018.95 11H14V4z"/>
</svg>
